X: 37902
T: South Wind
R: reel
M: 4/4
K: Dmajor
~f3efadA|JBd {e}dBefde|f z{a}edfa{e}dA|JBedB{c}ABde|~f3efa{e}d2|
JB d {e}dBefBd|Jg2fd{a}edBA|JBedBABde|fz (3fed fadA|JBd {a}dBefde|
Jfz {a}edfad2|JBedB{c}ABde|~f3efa{a}dc|JBddBefBz|fJgfd{a}ed{c}BA|
JBedBABdz|Je2{a}edefdc|JBcdBef!>!{c'}a2|Je zedefJB2|A (3e{a}ed BABdf|
~e3defdc|JBcdBefad|fJgfd{a}ed{c}BA|JBedBABdz|J~f3efad2|
JBddBefde|fz (3fed Jfgdc|JBedB{c}ABde|f zfb{c'}afed|Jed{c}BA{c}Bcdf-|
fJgfd{a}edBA|JBedBAB.dz|{a}fJg{a}gabaJbd'|af{a}fe{a}f2Bd|Je z{a}edefdc|
JBz dBABdf|J~g3a.b zbd'|af{a}fefAJBd|fJgfdJed{c}BA|JBedBABde|
~f3efadA|JBd {e}dBefde|f z(3fed JfadA|JBedB{c}ABde|~f3Jbafed|
Jed{c}BABcdz|fJgfd{a}edBA|JBedBAB.dz|Je2{a}edefdc|JBcd zef{c'}af|
Je2{a}edefJB2|AedBABdf|~e3defdc|Bz dBefad|fJgfd{a}ed{c}BA|
JBedefabd'|J!>!b4a2z2|zJbfef2BA|JB3-B2def|Je3d/B/ ABde|
z3A/B/defa|Jb3d'Jc'3b/a/|bd'f4ed|Je3z2A/B/de|fa{c'}afJbafa|
Jb2zd'Jc'afd|Je2{a}edefJA2|zABdedcA|JBG3F4|zB/A/ Bcdefg|
Jfgad'z3{e'}d'-|d'2JbaJfede|Jf2{a}fefad2|JBddBefde|.Jfz (3fed JfadA|
BedB{c}ABde|Jf2{a}fJbafed|JedBABcdz|Jg2fd{a}edBA|JBedBABdz|
Je2{a}edefdA|{c}B2dBef{c'}af|Je2{a}edefJB2|A{a}edB{c}ABdf|Je2{a}edefdc|
JB zdBefad|Jg2fd{a}edBA|JBedBABdf|~g3ababd'|.{c'}af{a}fe{a}fzJBd|
~e3defdB|AedBABdf|.Jg zgababd'|.{c'}af{a}fe{a}fABd|fJgfd{a}edBA|
Bedefabd'|J!>!b4a4-|a2.Jbz3z2|e3AJ!>!B4-|B A/B/ dJ!>!c3-A2-|A3{c}A3-A2-|A8|

